azure-docs/api_bing_spell_check.svg

<?xml version="1.0" encoding="UTF-8"?>
<svg width="512px" height="512px" viewBox="0 0 512 512" version="1.1" xmlns="http://www.w3.org/2000/svg" xmlns:xlink="http://www.w3.org/1999/xlink">
    <!-- Generator: Sketch 46.2 (44496) - http://www.bohemiancoding.com/sketch -->
    <title>bingSpellcheck-wht-bluBG-512p</title>
    <desc>Created with Sketch.</desc>
    <defs></defs>
    <g id="PRODUCTION-ICONS" stroke="none" stroke-width="1" fill="none" fill-rule="evenodd">
        <g id="bingSpellcheck-wht-bluBG-512p">
            <g id="Bing-Spell-Check-API">
                <rect id="Rectangle-3-Copy-12" fill="#0063B1" x="0" y="0" width="512" height="512"></rect>
                <path d="M135.317754,224.411892 L203.603151,292.786358 L388.060024,108.088889 L403.911111,123.919327 L203.603151,324.488558 L119.466667,240.24233 L135.317754,224.411892 Z M119.466667,392.533333 L119.466667,369.777778 L403.911111,369.777778 L403.911111,392.533333 L119.466667,392.533333 Z" id="Combined-Shape" fill="#FFFFFF" fill-rule="nonzero"></path>
            </g>
        </g>
    </g>
</svg>

<svg width="512" height="512" xmlns="http://www.w3.org/2000/svg"><g fill="none" fill-rule="evenodd"><path fill="#0063B1" d="M0 0h512v512H0z"/><path d="M135.318 224.412l68.285 68.374L388.06 108.09l15.851 15.83-200.308 200.57-84.136-84.247 15.85-15.83zm-15.851 168.121v-22.755H403.91v22.755H119.467z" fill="#FFF" fill-rule="nonzero"/></g></svg>
